optimized/20/solid/arrow-left-on-rectangle.svg

<svg xmlns="http://www.w3.org/2000/svg" viewBox="0 0 20 20">
  <path fill-rule="evenodd" d="M3 4.25C3 3.00736 4.00736 2 5.25 2H10.75C11.9926 2 13 3.00736 13 4.25V6.25C13 6.66421 12.6642 7 12.25 7C11.8358 7 11.5 6.66421 11.5 6.25V4.25C11.5 3.83579 11.1642 3.5 10.75 3.5H5.25C4.83579 3.5 4.5 3.83579 4.5 4.25V15.75C4.5 16.1642 4.83579 16.5 5.25 16.5H10.75C11.1642 16.5 11.5 16.1642 11.5 15.75V13.75C11.5 13.3358 11.8358 13 12.25 13C12.6642 13 13 13.3358 13 13.75V15.75C13 16.9926 11.9926 18 10.75 18H5.25C4.00736 18 3 16.9926 3 15.75V4.25Z" clip-rule="evenodd"/>
  <path fill-rule="evenodd" d="M19 10C19 9.58579 18.6642 9.25 18.25 9.25H8.70447L9.75172 8.30747C10.0596 8.03038 10.0846 7.55616 9.80747 7.24828C9.53038 6.94039 9.05616 6.91543 8.74828 7.19253L6.24828 9.44253C6.09024 9.58476 6 9.78738 6 10C6 10.2126 6.09024 10.4152 6.24828 10.5575L8.74828 12.8075C9.05616 13.0846 9.53038 13.0596 9.80747 12.7517C10.0846 12.4438 10.0596 11.9696 9.75172 11.6925L8.70447 10.75H18.25C18.6642 10.75 19 10.4142 19 10Z" clip-rule="evenodd"/>
</svg>

<svg xmlns="http://www.w3.org/2000/svg" viewBox="0 0 20 20" fill="currentColor" aria-hidden="true">
  <path fill-rule="evenodd" d="M3 4.25A2.25 2.25 0 015.25 2h5.5A2.25 2.25 0 0113 4.25v2a.75.75 0 01-1.5 0v-2a.75.75 0 00-.75-.75h-5.5a.75.75 0 00-.75.75v11.5c0 .414.336.75.75.75h5.5a.75.75 0 00.75-.75v-2a.75.75 0 011.5 0v2A2.25 2.25 0 0110.75 18h-5.5A2.25 2.25 0 013 15.75V4.25z" clip-rule="evenodd"/>
  <path fill-rule="evenodd" d="M19 10a.75.75 0 00-.75-.75H8.704l1.048-.943a.75.75 0 10-1.004-1.114l-2.5 2.25a.75.75 0 000 1.114l2.5 2.25a.75.75 0 101.004-1.114l-1.048-.943h9.546A.75.75 0 0019 10z" clip-rule="evenodd"/>
</svg>
